producthuntturkey/static/images/svg/telegram_tr.svg

<svg width="156" height="55" viewBox="0 0 156 55" fill="none" xmlns="http://www.w3.org/2000/svg">
<path d="M149.124 1H6.8755C3.63055 1 1 5.25329 1 10.5V44.5C1 49.7467 3.63055 54 6.8755 54H149.124C152.369 54 155 49.7467 155 44.5V10.5C155 5.25329 152.369 1 149.124 1Z" fill="#FFFFFC" stroke="black"/>
<path d="M33.5 45C43.165 45 51 37.165 51 27.5C51 17.835 43.165 10 33.5 10C23.835 10 16 17.835 16 27.5C16 37.165 23.835 45 33.5 45Z" fill="black"/>
<path fill-rule="evenodd" clip-rule="evenodd" d="M23.9215 27.3153C29.0231 25.0926 32.425 23.6273 34.1271 22.9193C38.987 20.8979 39.9969 20.5468 40.6551 20.5352C40.7999 20.5326 41.1235 20.5685 41.3332 20.7386C41.5103 20.8823 41.559 21.0763 41.5823 21.2125C41.6056 21.3487 41.6346 21.659 41.6115 21.9015C41.3482 24.6686 40.2086 31.3838 39.6289 34.483C39.3836 35.7945 38.9005 36.2342 38.4329 36.2772C37.4167 36.3707 36.645 35.6056 35.6607 34.9604C34.1204 33.9507 33.2503 33.3222 31.7552 32.337C30.0274 31.1984 31.1475 30.5726 32.1322 29.5499C32.3899 29.2823 36.8675 25.2095 36.9542 24.84C36.965 24.7938 36.9751 24.6216 36.8728 24.5306C36.7704 24.4397 36.6194 24.4708 36.5104 24.4955C36.3559 24.5306 33.8954 26.1569 29.1288 29.3745C28.4304 29.8541 27.7978 30.0877 27.231 30.0755C26.6062 30.062 25.4042 29.7222 24.5107 29.4318C23.4148 29.0755 22.5437 28.8872 22.6196 28.2821C22.6591 27.967 23.0931 27.6447 23.9215 27.3153Z" fill="white"/>
<path d="M67.305 22C66.897 22 66.693 21.796 66.693 21.388V16.267C66.693 15.859 66.897 15.655 67.305 15.655H69.465C70.131 15.655 70.647 15.802 71.013 16.096C71.379 16.384 71.562 16.786 71.562 17.302C71.562 17.644 71.475 17.938 71.301 18.184C71.127 18.43 70.887 18.61 70.581 18.724C70.941 18.826 71.22 19.006 71.418 19.264C71.622 19.516 71.724 19.837 71.724 20.227C71.724 20.791 71.532 21.229 71.148 21.541C70.77 21.847 70.242 22 69.564 22H67.305ZM67.8 18.346H69.267C70.053 18.346 70.446 18.043 70.446 17.437C70.446 16.831 70.053 16.528 69.267 16.528H67.8V18.346ZM67.8 21.127H69.42C70.212 21.127 70.608 20.809 70.608 20.173C70.608 19.537 70.212 19.219 69.42 19.219H67.8V21.127ZM74.5003 22.072C74.1163 22.072 73.9243 21.874 73.9243 21.478V16.177C73.9243 15.781 74.1163 15.583 74.5003 15.583C74.8843 15.583 75.0763 15.781 75.0763 16.177V21.478C75.0763 21.874 74.8843 22.072 74.5003 22.072ZM74.5003 14.899C74.1103 14.899 73.9153 14.71 73.9153 14.332C73.9153 13.96 74.1103 13.774 74.5003 13.774C74.8903 13.774 75.0853 13.96 75.0853 14.332C75.0853 14.71 74.8903 14.899 74.5003 14.899ZM77.7603 22C77.5623 22 77.4123 21.949 77.3103 21.847C77.2143 21.739 77.1723 21.601 77.1843 21.433C77.2023 21.265 77.2773 21.091 77.4093 20.911L80.5773 16.618H77.6703C77.3283 16.618 77.1573 16.456 77.1573 16.132C77.1573 15.814 77.3283 15.655 77.6703 15.655H81.3963C81.5943 15.655 81.7413 15.709 81.8373 15.817C81.9393 15.919 81.9843 16.054 81.9723 16.222C81.9603 16.384 81.8853 16.558 81.7473 16.744L78.5793 21.037H81.6213C81.9633 21.037 82.1343 21.196 82.1343 21.514C82.1343 21.838 81.9633 22 81.6213 22H77.7603ZM84.5595 22.072C84.1755 22.072 83.9835 21.874 83.9835 21.478V16.177C83.9835 15.781 84.1755 15.583 84.5595 15.583C84.9435 15.583 85.1355 15.781 85.1355 16.177V21.478C85.1355 21.874 84.9435 22.072 84.5595 22.072ZM84.5595 14.899C84.1695 14.899 83.9745 14.71 83.9745 14.332C83.9745 13.96 84.1695 13.774 84.5595 13.774C84.9495 13.774 85.1445 13.96 85.1445 14.332C85.1445 14.71 84.9495 14.899 84.5595 14.899ZM93.1429 22.072C92.7589 22.072 92.5669 21.874 92.5669 21.478V16.618H90.8119C90.4819 16.618 90.3169 16.456 90.3169 16.132C90.3169 15.814 90.4819 15.655 90.8119 15.655H95.4739C95.8039 15.655 95.9689 15.814 95.9689 16.132C95.9689 16.456 95.8039 16.618 95.4739 16.618H93.7189V21.478C93.7189 21.874 93.5269 22.072 93.1429 22.072ZM97.0217 22.072C96.8117 22.072 96.6617 22 96.5717 21.856C96.4817 21.712 96.4847 21.538 96.5807 21.334L98.9567 16.069C99.0347 15.895 99.1277 15.772 99.2357 15.7C99.3497 15.622 99.4787 15.583 99.6227 15.583C99.7607 15.583 99.8837 15.622 99.9917 15.7C100.106 15.772 100.202 15.895 100.28 16.069L102.665 21.334C102.761 21.544 102.767 21.721 102.683 21.865C102.599 22.003 102.455 22.072 102.251 22.072C102.083 22.072 101.951 22.033 101.855 21.955C101.765 21.871 101.684 21.745 101.612 21.577L101.162 20.533H98.0657L97.6247 21.577C97.5467 21.751 97.4657 21.877 97.3817 21.955C97.2977 22.033 97.1777 22.072 97.0217 22.072ZM99.6047 16.906L98.4617 19.615H100.766L99.6227 16.906H99.6047ZM105.267 22.072C104.883 22.072 104.691 21.874 104.691 21.478V16.168C104.691 15.778 104.883 15.583 105.267 15.583C105.651 15.583 105.843 15.778 105.843 16.168V18.463H105.861L108.444 15.871C108.54 15.775 108.636 15.703 108.732 15.655C108.828 15.607 108.936 15.583 109.056 15.583C109.23 15.583 109.353 15.628 109.425 15.718C109.503 15.808 109.533 15.913 109.515 16.033C109.503 16.153 109.446 16.264 109.344 16.366L106.977 18.706L109.47 21.235C109.596 21.355 109.662 21.481 109.668 21.613C109.674 21.745 109.632 21.856 109.542 21.946C109.458 22.03 109.332 22.072 109.164 22.072C109.02 22.072 108.903 22.042 108.813 21.982C108.729 21.922 108.63 21.835 108.516 21.721L105.861 19.066H105.843V21.478C105.843 21.874 105.651 22.072 105.267 22.072ZM112.287 22.072C111.903 22.072 111.711 21.874 111.711 21.478V16.177C111.711 15.781 111.903 15.583 112.287 15.583C112.671 15.583 112.863 15.781 112.863 16.177V21.478C112.863 21.874 112.671 22.072 112.287 22.072ZM112.287 14.899C111.897 14.899 111.702 14.71 111.702 14.332C111.702 13.96 111.897 13.774 112.287 13.774C112.677 13.774 112.872 13.96 112.872 14.332C112.872 14.71 112.677 14.899 112.287 14.899ZM115.862 22.072C115.478 22.072 115.286 21.874 115.286 21.478V16.24C115.286 15.85 115.481 15.655 115.871 15.655H118.04C118.736 15.655 119.273 15.829 119.651 16.177C120.029 16.525 120.218 17.011 120.218 17.635C120.218 18.259 120.029 18.748 119.651 19.102C119.273 19.45 118.736 19.624 118.04 19.624H116.438V21.478C116.438 21.874 116.246 22.072 115.862 22.072ZM116.438 18.715H117.86C118.688 18.715 119.102 18.355 119.102 17.635C119.102 16.921 118.688 16.564 117.86 16.564H116.438V18.715ZM126.283 22C125.875 22 125.671 21.796 125.671 21.388V16.267C125.671 15.859 125.875 15.655 126.283 15.655H129.496C129.808 15.655 129.964 15.805 129.964 16.105C129.964 16.417 129.808 16.573 129.496 16.573H126.778V18.319H129.298C129.61 18.319 129.766 18.472 129.766 18.778C129.766 19.084 129.61 19.237 129.298 19.237H126.778V21.082H129.496C129.808 21.082 129.964 21.235 129.964 21.541C129.964 21.847 129.808 22 129.496 22H126.283ZM134.138 22.072C133.754 22.072 133.562 21.874 133.562 21.478V16.618H131.807C131.477 16.618 131.312 16.456 131.312 16.132C131.312 15.814 131.477 15.655 131.807 15.655H136.469C136.799 15.655 136.964 15.814 136.964 16.132C136.964 16.456 136.799 16.618 136.469 16.618H134.714V21.478C134.714 21.874 134.522 22.072 134.138 22.072Z" fill="black"/>
<path d="M71.706 41.162C71.25 41.162 70.902 41.036 70.662 40.784C70.422 40.532 70.302 40.178 70.302 39.722V30.614H67.116C66.336 30.614 65.946 30.23 65.946 29.462C65.946 28.694 66.336 28.31 67.116 28.31H76.278C77.058 28.31 77.448 28.694 77.448 29.462C77.448 30.23 77.058 30.614 76.278 30.614H73.092V39.722C73.092 40.178 72.972 40.532 72.732 40.784C72.504 41.036 72.162 41.162 71.706 41.162ZM80.6832 41.198C79.6392 41.198 78.7392 41.012 77.9832 40.64C77.2392 40.256 76.6632 39.722 76.2552 39.038C75.8592 38.342 75.6612 37.526 75.6612 36.59C75.6612 35.678 75.8532 34.88 76.2372 34.196C76.6332 33.5 77.1672 32.96 77.8392 32.576C78.5232 32.18 79.3092 31.982 80.1972 31.982C81.4812 31.982 82.5012 32.39 83.2572 33.206C84.0132 34.01 84.3912 35.102 84.3912 36.482C84.3912 36.938 84.1092 37.166 83.5452 37.166H78.2532C78.3492 37.862 78.6012 38.372 79.0092 38.696C79.4292 39.008 80.0052 39.164 80.7372 39.164C81.0252 39.164 81.3492 39.134 81.7092 39.074C82.0812 39.002 82.4352 38.882 82.7712 38.714C83.1192 38.546 83.4132 38.516 83.6532 38.624C83.8932 38.72 84.0552 38.888 84.1392 39.128C84.2352 39.368 84.2352 39.62 84.1392 39.884C84.0552 40.136 83.8572 40.346 83.5452 40.514C83.1252 40.742 82.6572 40.91 82.1412 41.018C81.6372 41.138 81.1512 41.198 80.6832 41.198ZM80.3052 33.782C79.7292 33.782 79.2612 33.956 78.9012 34.304C78.5532 34.652 78.3372 35.138 78.2532 35.762H82.1412C82.0692 34.442 81.4572 33.782 80.3052 33.782ZM88.2581 41.198C86.1341 41.198 85.0721 40.016 85.0721 37.652V29.534C85.0721 28.61 85.5281 28.148 86.4401 28.148C87.3401 28.148 87.7901 28.61 87.7901 29.534V37.544C87.7901 38.036 87.8921 38.402 88.0961 38.642C88.3121 38.87 88.5941 38.984 88.9421 38.984C89.0381 38.984 89.1281 38.978 89.2121 38.966C89.3081 38.954 89.3981 38.948 89.4821 38.948C89.6741 38.936 89.8061 38.996 89.8781 39.128C89.9621 39.26 90.0041 39.53 90.0041 39.938C90.0041 40.634 89.7101 41.03 89.1221 41.126C89.0021 41.138 88.8641 41.15 88.7081 41.162C88.5521 41.186 88.4021 41.198 88.2581 41.198ZM94.6684 41.198C93.6244 41.198 92.7244 41.012 91.9684 40.64C91.2244 40.256 90.6484 39.722 90.2404 39.038C89.8444 38.342 89.6464 37.526 89.6464 36.59C89.6464 35.678 89.8384 34.88 90.2224 34.196C90.6184 33.5 91.1524 32.96 91.8244 32.576C92.5084 32.18 93.2944 31.982 94.1824 31.982C95.4664 31.982 96.4864 32.39 97.2424 33.206C97.9984 34.01 98.3764 35.102 98.3764 36.482C98.3764 36.938 98.0944 37.166 97.5304 37.166H92.2384C92.3344 37.862 92.5864 38.372 92.9944 38.696C93.4144 39.008 93.9904 39.164 94.7224 39.164C95.0104 39.164 95.3344 39.134 95.6944 39.074C96.0664 39.002 96.4204 38.882 96.7564 38.714C97.1044 38.546 97.3984 38.516 97.6384 38.624C97.8784 38.72 98.0404 38.888 98.1244 39.128C98.2204 39.368 98.2204 39.62 98.1244 39.884C98.0404 40.136 97.8424 40.346 97.5304 40.514C97.1104 40.742 96.6424 40.91 96.1264 41.018C95.6224 41.138 95.1364 41.198 94.6684 41.198ZM94.2904 33.782C93.7144 33.782 93.2464 33.956 92.8864 34.304C92.5384 34.652 92.3224 35.138 92.2384 35.762H96.1264C96.0544 34.442 95.4424 33.782 94.2904 33.782ZM103.305 44.438C102.657 44.438 102.039 44.384 101.451 44.276C100.863 44.168 100.335 44.006 99.8673 43.79C99.5193 43.646 99.2973 43.442 99.2013 43.178C99.1053 42.914 99.1053 42.656 99.2013 42.404C99.3093 42.152 99.4713 41.96 99.6873 41.828C99.9153 41.708 100.167 41.708 100.443 41.828C100.971 42.068 101.457 42.224 101.901 42.296C102.357 42.368 102.747 42.404 103.071 42.404C104.607 42.404 105.375 41.696 105.375 40.28V39.272C105.135 39.728 104.757 40.094 104.241 40.37C103.725 40.646 103.161 40.784 102.549 40.784C101.757 40.784 101.067 40.604 100.479 40.244C99.8913 39.872 99.4353 39.356 99.1113 38.696C98.7873 38.036 98.6253 37.262 98.6253 36.374C98.6253 35.498 98.7873 34.73 99.1113 34.07C99.4353 33.41 99.8913 32.9 100.479 32.54C101.067 32.168 101.757 31.982 102.549 31.982C103.161 31.982 103.719 32.114 104.223 32.378C104.727 32.642 105.099 32.99 105.339 33.422V33.386C105.339 32.942 105.453 32.606 105.681 32.378C105.921 32.138 106.257 32.018 106.689 32.018C107.577 32.018 108.021 32.474 108.021 33.386V39.974C108.021 41.462 107.619 42.578 106.815 43.322C106.011 44.066 104.841 44.438 103.305 44.438ZM103.359 38.75C103.959 38.75 104.439 38.54 104.799 38.12C105.171 37.7 105.357 37.118 105.357 36.374C105.357 35.63 105.171 35.054 104.799 34.646C104.439 34.226 103.959 34.016 103.359 34.016C102.747 34.016 102.261 34.226 101.901 34.646C101.541 35.054 101.361 35.63 101.361 36.374C101.361 37.118 101.541 37.7 101.901 38.12C102.261 38.54 102.747 38.75 103.359 38.75ZM110.636 41.162C109.7 41.162 109.232 40.7 109.232 39.776V33.386C109.232 32.474 109.676 32.018 110.563 32.018C111.452 32.018 111.896 32.474 111.896 33.386V33.71C112.328 32.642 113.222 32.066 114.578 31.982C114.878 31.958 115.106 32.036 115.262 32.216C115.43 32.384 115.52 32.666 115.532 33.062C115.556 33.434 115.478 33.728 115.298 33.944C115.13 34.16 114.842 34.292 114.434 34.34L114.02 34.376C112.676 34.508 112.004 35.192 112.004 36.428V39.776C112.004 40.7 111.548 41.162 110.636 41.162ZM118.65 41.198C117.99 41.198 117.408 41.072 116.904 40.82C116.4 40.568 115.998 40.226 115.698 39.794C115.41 39.362 115.266 38.876 115.266 38.336C115.266 37.7 115.434 37.19 115.77 36.806C116.106 36.422 116.652 36.152 117.408 35.996C118.164 35.828 119.166 35.744 120.414 35.744H121.062V35.438C121.062 34.91 120.942 34.538 120.702 34.322C120.462 34.094 120.054 33.98 119.478 33.98C119.154 33.98 118.8 34.022 118.416 34.106C118.032 34.178 117.618 34.304 117.174 34.484C116.838 34.628 116.556 34.64 116.328 34.52C116.1 34.388 115.95 34.196 115.878 33.944C115.806 33.68 115.824 33.416 115.932 33.152C116.052 32.888 116.28 32.696 116.616 32.576C117.18 32.36 117.708 32.21 118.2 32.126C118.704 32.03 119.166 31.982 119.586 31.982C120.954 31.982 121.974 32.294 122.646 32.918C123.318 33.53 123.654 34.484 123.654 35.78V39.776C123.654 40.7 123.234 41.162 122.394 41.162C121.542 41.162 121.116 40.7 121.116 39.776V39.668C120.936 40.136 120.63 40.508 120.198 40.784C119.778 41.06 119.262 41.198 118.65 41.198ZM119.262 39.38C119.766 39.38 120.192 39.206 120.54 38.858C120.888 38.51 121.062 38.06 121.062 37.508V37.148H120.432C119.508 37.148 118.854 37.232 118.47 37.4C118.086 37.556 117.894 37.832 117.894 38.228C117.894 38.564 118.008 38.84 118.236 39.056C118.476 39.272 118.818 39.38 119.262 39.38ZM126.185 41.162C125.273 41.162 124.817 40.7 124.817 39.776V33.386C124.817 32.474 125.261 32.018 126.149 32.018C127.037 32.018 127.481 32.474 127.481 33.386V33.44C127.745 32.984 128.105 32.63 128.561 32.378C129.029 32.114 129.569 31.982 130.181 31.982C130.805 31.982 131.333 32.12 131.765 32.396C132.209 32.672 132.545 33.092 132.773 33.656C133.049 33.128 133.445 32.72 133.961 32.432C134.489 32.132 135.071 31.982 135.707 31.982C136.715 31.982 137.465 32.288 137.957 32.9C138.449 33.5 138.695 34.43 138.695 35.69V39.776C138.695 40.22 138.575 40.562 138.335 40.802C138.107 41.042 137.777 41.162 137.345 41.162C136.433 41.162 135.977 40.7 135.977 39.776V35.78C135.977 35.192 135.881 34.766 135.689 34.502C135.509 34.226 135.197 34.088 134.753 34.088C134.237 34.088 133.835 34.268 133.547 34.628C133.259 34.988 133.115 35.498 133.115 36.158V39.776C133.115 40.7 132.665 41.162 131.765 41.162C131.333 41.162 130.997 41.042 130.757 40.802C130.517 40.562 130.397 40.22 130.397 39.776V35.78C130.397 35.192 130.301 34.766 130.109 34.502C129.917 34.226 129.605 34.088 129.173 34.088C128.657 34.088 128.255 34.268 127.967 34.628C127.679 34.988 127.535 35.498 127.535 36.158V39.776C127.535 40.7 127.085 41.162 126.185 41.162Z" fill="black"/>
</svg>

<svg xmlns="http://www.w3.org/2000/svg" width="156" height="55" fill="none" xmlns:v="https://vecta.io/nano"><path d="M149.124 1H6.876C3.631 1 1 5.253 1 10.5v34C1 49.747 3.631 54 6.876 54h142.249c3.245 0 5.876-4.253 5.876-9.5v-34c0-5.247-2.631-9.5-5.876-9.5z" fill="#fffffc" stroke="#000"/><path d="M33.5 45C43.165 45 51 37.165 51 27.5S43.165 10 33.5 10 16 17.835 16 27.5 23.835 45 33.5 45z" fill="#000"/><path fill-rule="evenodd" d="M23.922 27.315l10.206-4.396 6.528-2.384c.145-.003.468.033.678.203.177.144.226.338.249.474s.052.447.029.689c-.263 2.767-1.403 9.482-1.983 12.581-.245 1.312-.728 1.751-1.196 1.794-1.016.093-1.788-.672-2.772-1.317l-3.905-2.623c-1.728-1.139-.608-1.764.377-2.787.258-.268 4.735-4.34 4.822-4.71.011-.046.021-.218-.081-.309s-.253-.06-.362-.035c-.154.035-2.615 1.661-7.382 4.879-.698.48-1.331.713-1.898.701-.625-.014-1.827-.353-2.72-.644-1.096-.356-1.967-.545-1.891-1.15.04-.315.474-.637 1.302-.967z" fill="#fff"/><path d="M67.305 22c-.408 0-.612-.204-.612-.612v-5.121c0-.408.204-.612.612-.612h2.16c.666 0 1.182.147 1.548.441.366.288.549.69.549 1.206 0 .342-.087.636-.261.882s-.414.426-.72.54c.36.102.639.282.837.54.204.252.306.573.306.963 0 .564-.192 1.002-.576 1.314-.378.306-.906.459-1.584.459h-2.259zm.495-3.654h1.467c.786 0 1.179-.303 1.179-.909s-.393-.909-1.179-.909H67.8v1.818zm0 2.781h1.62c.792 0 1.188-.318 1.188-.954s-.396-.954-1.188-.954H67.8v1.908zm6.7.945c-.384 0-.576-.198-.576-.594v-5.301c0-.396.192-.594.576-.594s.576.198.576.594v5.301c0 .396-.192.594-.576.594zm0-7.173c-.39 0-.585-.189-.585-.567 0-.372.195-.558.585-.558s.585.186.585.558c0 .378-.195.567-.585.567zM77.76 22c-.198 0-.348-.051-.45-.153-.096-.108-.138-.246-.126-.414.018-.168.093-.342.225-.522l3.168-4.293H77.67c-.342 0-.513-.162-.513-.486 0-.318.171-.477.513-.477h3.726c.198 0 .345.054.441.162.102.102.147.237.135.405-.012.162-.087.336-.225.522l-3.168 4.293h3.042c.342 0 .513.159.513.477 0 .324-.171.486-.513.486H77.76zm6.799.072c-.384 0-.576-.198-.576-.594v-5.301c0-.396.192-.594.576-.594s.576.198.576.594v5.301c0 .396-.192.594-.576.594zm0-7.173c-.39 0-.585-.189-.585-.567 0-.372.195-.558.585-.558s.585.186.585.558c0 .378-.195.567-.585.567zm8.583 7.173c-.384 0-.576-.198-.576-.594v-4.86h-1.755c-.33 0-.495-.162-.495-.486 0-.318.165-.477.495-.477h4.662c.33 0 .495.159.495.477 0 .324-.165.486-.495.486h-1.755v4.86c0 .396-.192.594-.576.594zm3.879 0c-.21 0-.36-.072-.45-.216s-.087-.318.009-.522l2.376-5.265c.078-.174.171-.297.279-.369a.67.67 0 0 1 .387-.117c.138 0 .261.039.369.117a.81.81 0 0 1 .288.369l2.385 5.265c.096.21.102.387.018.531-.084.138-.228.207-.432.207-.168 0-.3-.039-.396-.117-.09-.084-.171-.21-.243-.378l-.45-1.044h-3.096l-.441 1.044c-.078.174-.159.3-.243.378s-.204.117-.36.117zm2.583-5.166l-1.143 2.709h2.304l-1.143-2.709h-.018zm5.662 5.166c-.384 0-.576-.198-.576-.594v-5.31c0-.39.192-.585.576-.585s.576.195.576.585v2.295h.018l2.583-2.592a1.13 1.13 0 0 1 .288-.216c.096-.048.204-.072.324-.072.174 0 .297.045.369.135.078.09.108.195.09.315-.012.12-.069.231-.171.333l-2.367 2.34 2.493 2.529a.56.56 0 0 1 .198.378c.006.132-.036.243-.126.333-.084.084-.21.126-.378.126-.144 0-.261-.03-.351-.09-.084-.06-.183-.147-.297-.261l-2.655-2.655h-.018v2.412c0 .396-.192.594-.576.594zm7.02 0c-.384 0-.576-.198-.576-.594v-5.301c0-.396.192-.594.576-.594s.576.198.576.594v5.301c0 .396-.192.594-.576.594zm0-7.173c-.39 0-.585-.189-.585-.567 0-.372.195-.558.585-.558s.585.186.585.558c0 .378-.195.567-.585.567zm3.575 7.173c-.384 0-.576-.198-.576-.594V16.24c0-.39.195-.585.585-.585h2.169c.696 0 1.233.174 1.611.522s.567.834.567 1.458-.189 1.113-.567 1.467c-.378.348-.915.522-1.611.522h-1.602v1.854c0 .396-.192.594-.576.594zm.576-3.357h1.422c.828 0 1.242-.36 1.242-1.08 0-.714-.414-1.071-1.242-1.071h-1.422v2.151zM126.283 22c-.408 0-.612-.204-.612-.612v-5.121c0-.408.204-.612.612-.612h3.213c.312 0 .468.15.468.45 0 .312-.156.468-.468.468h-2.718v1.746h2.52c.312 0 .468.153.468.459s-.156.459-.468.459h-2.52v1.845h2.718c.312 0 .468.153.468.459s-.156.459-.468.459h-3.213zm7.855.072c-.384 0-.576-.198-.576-.594v-4.86h-1.755c-.33 0-.495-.162-.495-.486 0-.318.165-.477.495-.477h4.662c.33 0 .495.159.495.477 0 .324-.165.486-.495.486h-1.755v4.86c0 .396-.192.594-.576.594zm-62.432 19.09c-.456 0-.804-.126-1.044-.378s-.36-.606-.36-1.062v-9.108h-3.186c-.78 0-1.17-.384-1.17-1.152s.39-1.152 1.17-1.152h9.162c.78 0 1.17.384 1.17 1.152s-.39 1.152-1.17 1.152h-3.186v9.108c0 .456-.12.81-.36 1.062-.228.252-.57.378-1.026.378zm8.977.036c-1.044 0-1.944-.186-2.7-.558a4.21 4.21 0 0 1-1.728-1.602c-.396-.696-.594-1.512-.594-2.448 0-.912.192-1.71.576-2.394a4.24 4.24 0 0 1 1.602-1.62c.684-.396 1.47-.594 2.358-.594 1.284 0 2.304.408 3.06 1.224.756.804 1.134 1.896 1.134 3.276 0 .456-.282.684-.846.684h-5.292c.096.696.348 1.206.756 1.53.42.312.996.468 1.728.468a5.97 5.97 0 0 0 .972-.09 4.11 4.11 0 0 0 1.062-.36c.348-.168.642-.198.882-.09a.81.81 0 0 1 .486.504c.096.24.096.492 0 .756-.084.252-.282.462-.594.63-.42.228-.888.396-1.404.504a6.29 6.29 0 0 1-1.458.18zm-.378-7.416c-.576 0-1.044.174-1.404.522-.348.348-.564.834-.648 1.458h3.888c-.072-1.32-.684-1.98-1.836-1.98zm7.953 7.416c-2.124 0-3.186-1.182-3.186-3.546v-8.118c0-.924.456-1.386 1.368-1.386.9 0 1.35.462 1.35 1.386v8.01c0 .492.102.858.306 1.098.216.228.498.342.846.342a1.91 1.91 0 0 0 .27-.018c.096-.012.186-.018.27-.018.192-.012.324.048.396.18.084.132.126.402.126.81 0 .696-.294 1.092-.882 1.188l-.414.036a2.96 2.96 0 0 1-.45.036zm6.41 0c-1.044 0-1.944-.186-2.7-.558a4.21 4.21 0 0 1-1.728-1.602c-.396-.696-.594-1.512-.594-2.448 0-.912.192-1.71.576-2.394a4.24 4.24 0 0 1 1.602-1.62c.684-.396 1.47-.594 2.358-.594 1.284 0 2.304.408 3.06 1.224.756.804 1.134 1.896 1.134 3.276 0 .456-.282.684-.846.684h-5.292c.096.696.348 1.206.756 1.53.42.312.996.468 1.728.468a5.97 5.97 0 0 0 .972-.09 4.11 4.11 0 0 0 1.062-.36c.348-.168.642-.198.882-.09a.81.81 0 0 1 .486.504c.096.24.096.492 0 .756-.084.252-.282.462-.594.63-.42.228-.888.396-1.404.504a6.29 6.29 0 0 1-1.458.18zm-.378-7.416c-.576 0-1.044.174-1.404.522-.348.348-.564.834-.648 1.458h3.888c-.072-1.32-.684-1.98-1.836-1.98zm9.015 10.656a10.25 10.25 0 0 1-1.854-.162 6.62 6.62 0 0 1-1.584-.486c-.348-.144-.57-.348-.666-.612s-.096-.522 0-.774c.108-.252.27-.444.486-.576.228-.12.48-.12.756 0 .528.24 1.014.396 1.458.468.456.072.846.108 1.17.108 1.536 0 2.304-.708 2.304-2.124v-1.008c-.24.456-.618.822-1.134 1.098a3.53 3.53 0 0 1-1.692.414c-.792 0-1.482-.18-2.07-.54-.588-.372-1.044-.888-1.368-1.548s-.486-1.434-.486-2.322c0-.876.162-1.644.486-2.304s.78-1.17 1.368-1.53c.588-.372 1.278-.558 2.07-.558.612 0 1.17.132 1.674.396s.876.612 1.116 1.044v-.036c0-.444.114-.78.342-1.008.24-.24.576-.36 1.008-.36.888 0 1.332.456 1.332 1.368v6.588c0 1.488-.402 2.604-1.206 3.348s-1.974 1.116-3.51 1.116zm.054-5.688c.6 0 1.08-.21 1.44-.63.372-.42.558-1.002.558-1.746s-.186-1.32-.558-1.728c-.36-.42-.84-.63-1.44-.63-.612 0-1.098.21-1.458.63-.36.408-.54.984-.54 1.728s.18 1.326.54 1.746.846.63 1.458.63zm7.277 2.412c-.936 0-1.404-.462-1.404-1.386v-6.39c0-.912.444-1.368 1.331-1.368s1.333.456 1.333 1.368v.324c.432-1.068 1.326-1.644 2.682-1.728.3-.024.528.054.684.234.168.168.258.45.27.846.024.372-.054.666-.234.882-.168.216-.456.348-.864.396l-.414.036c-1.344.132-2.016.816-2.016 2.052v3.348c0 .924-.456 1.386-1.368 1.386zm8.014.036c-.66 0-1.242-.126-1.746-.378s-.906-.594-1.206-1.026a2.57 2.57 0 0 1-.432-1.458c0-.636.168-1.146.504-1.53s.882-.654 1.638-.81c.756-.168 1.758-.252 3.006-.252h.648v-.306c0-.528-.12-.9-.36-1.116-.24-.228-.648-.342-1.224-.342-.324 0-.678.042-1.062.126-.384.072-.798.198-1.242.378-.336.144-.618.156-.846.036a.94.94 0 0 1-.45-.576c-.072-.264-.054-.528.054-.792.12-.264.348-.456.684-.576.564-.216 1.092-.366 1.584-.45.504-.096.966-.144 1.386-.144 1.368 0 2.388.312 3.06.936.672.612 1.008 1.566 1.008 2.862v3.996c0 .924-.42 1.386-1.26 1.386-.852 0-1.278-.462-1.278-1.386v-.108c-.18.468-.486.84-.918 1.116-.42.276-.936.414-1.548.414zm.612-1.818c.504 0 .93-.174 1.278-.522s.522-.798.522-1.35v-.36h-.63c-.924 0-1.578.084-1.962.252-.384.156-.576.432-.576.828a1.09 1.09 0 0 0 .342.828c.24.216.582.324 1.026.324zm6.923 1.782c-.912 0-1.368-.462-1.368-1.386v-6.39c0-.912.444-1.368 1.332-1.368s1.332.456 1.332 1.368v.054c.264-.456.624-.81 1.08-1.062.468-.264 1.008-.396 1.62-.396.624 0 1.152.138 1.584.414.444.276.78.696 1.008 1.26a2.92 2.92 0 0 1 1.188-1.224c.528-.3 1.11-.45 1.746-.45 1.008 0 1.758.306 2.25.918.492.6.738 1.53.738 2.79v4.086c0 .444-.12.786-.36 1.026-.228.24-.558.36-.99.36-.912 0-1.368-.462-1.368-1.386V35.78c0-.588-.096-1.014-.288-1.278-.18-.276-.492-.414-.936-.414-.516 0-.918.18-1.206.54s-.432.87-.432 1.53v3.618c0 .924-.45 1.386-1.35 1.386-.432 0-.768-.12-1.008-.36s-.36-.582-.36-1.026V35.78c0-.588-.096-1.014-.288-1.278-.192-.276-.504-.414-.936-.414-.516 0-.918.18-1.206.54s-.432.87-.432 1.53v3.618c0 .924-.45 1.386-1.35 1.386z" fill="#000"/></svg>
